packages/sources/assets/src/assets/oney-classic.svg

<svg width="58" height="40" viewBox="0 0 58 40" fill="none" xmlns="http://www.w3.org/2000/svg">
<rect x="0.5" y="0.5" width="57" height="39" rx="3.5" fill="white" stroke="#F3F3F3"/>
<path fill-rule="evenodd" clip-rule="evenodd" d="M23.2602 14.0581C21.0688 14.0581 19.9548 15.2309 19.9548 17.5529V24.4268H17.704V17.3909C17.7257 16.158 17.9446 15.2856 18.4486 14.4669C19.0449 13.5473 20.461 12 23.2602 12C26.0526 12 27.4733 13.5473 28.0684 14.4669C28.5678 15.2856 28.7936 16.158 28.8073 17.3909V24.4268H26.5588V17.5529C26.5588 15.2309 25.4517 14.0581 23.2602 14.0581ZM4 18.2236C4 14.733 6.72621 12.0032 10.2084 12.0032C13.6814 12.0032 16.4076 14.733 16.4076 18.2236C16.4076 21.7099 13.6814 24.444 10.2084 24.444C6.72621 24.444 4 21.7099 4 18.2236ZM6.19374 18.2236C6.19374 20.5167 7.99525 22.314 10.2084 22.314C12.4067 22.314 14.2173 20.5167 14.2173 18.2236C14.2173 15.9305 12.4067 14.1289 10.2084 14.1289C7.99525 14.1289 6.19374 15.9305 6.19374 18.2236ZM42.143 18.0594C42.1225 14.7277 39.4282 12.0172 36.1319 12.0172C32.7398 12.0172 30.0809 14.7373 30.0809 18.2086C30.0809 19.8385 30.7057 21.3858 31.8299 22.5672C32.9747 23.7626 34.4843 24.4214 36.0909 24.4214C37.9243 24.4214 40.4932 23.5426 41.7143 21.0489L41.7463 20.9684H39.288L39.2732 20.9867C38.613 21.7753 37.3668 22.3076 36.1798 22.3076C34.6725 22.3076 32.8641 21.315 32.3693 19.0745H42.0951C42.1168 18.8427 42.143 18.3792 42.143 18.0594ZM36.1137 14.1289C34.1788 14.1289 32.7398 15.5947 32.4411 17.0958H39.7783C39.483 15.5947 38.0452 14.1289 36.1137 14.1289ZM49.0994 23.5598L53.8426 12.0032H51.4847L47.9284 20.6926L44.379 12.0032H41.907L46.7551 23.5619L44.9399 28H47.2796L47.9273 26.4194L49.0994 23.5598Z" fill="#87BC2B"/>
</svg>

<svg width="58" height="40" fill="none" xmlns="http://www.w3.org/2000/svg"><rect x=".5" y=".5" width="57" height="39" rx="3.5" fill="#fff" stroke="#F3F3F3"/><path fill-rule="evenodd" clip-rule="evenodd" d="M23.26 14.058c-2.191 0-3.305 1.173-3.305 3.495v6.874h-2.251V17.39c.022-1.233.24-2.105.745-2.924.596-.92 2.012-2.467 4.811-2.467 2.793 0 4.213 1.547 4.808 2.467.5.819.726 1.691.74 2.924v7.036h-2.25v-6.874c0-2.322-1.106-3.495-3.298-3.495ZM4 18.224c0-3.491 2.726-6.22 6.208-6.22 3.473 0 6.2 2.729 6.2 6.22 0 3.486-2.727 6.22-6.2 6.22C6.726 24.444 4 21.71 4 18.224Zm2.194 0c0 2.293 1.801 4.09 4.014 4.09 2.199 0 4.01-1.797 4.01-4.09s-1.811-4.095-4.01-4.095c-2.213 0-4.014 1.802-4.014 4.095Zm35.949-.165c-.02-3.331-2.715-6.042-6.011-6.042-3.392 0-6.051 2.72-6.051 6.192a6.3 6.3 0 0 0 1.749 4.358c1.145 1.196 2.654 1.854 4.26 1.854 1.834 0 4.403-.878 5.624-3.372l.032-.08h-2.458l-.015.018c-.66.788-1.906 1.32-3.093 1.32-1.508 0-3.316-.992-3.81-3.232h9.725c.022-.232.048-.696.048-1.016Zm-6.03-3.93c-1.934 0-3.373 1.466-3.672 2.967h7.337c-.295-1.501-1.733-2.967-3.664-2.967Zm12.986 9.43 4.744-11.556h-2.358l-3.557 8.69-3.549-8.69h-2.472l4.848 11.559L44.94 28h2.34l.647-1.58 1.172-2.86Z" fill="#87BC2B"/></svg>
